X:1
T:Title
%%score ( 1 2 ) { ( 3 5 ) | 4 }
L:1/8
Q:1/4=105
M:6/8
K:Ab
V:1 treble nm="Grand Piano, Soprano"
V:2 treble 
V:3 bass nm="Choir Pad, The Stars Are Brightly Shining"
V:5 bass 
V:4 bass 
V:1
 [CE] [CE]2 [Ec] [=DB]2 | [Dc] [CA]2- [CA] [CE]2 | [CE] [DF]2 [Fd] [FA]2 | %3
w: By~Mrs.~H.~A.~Farnsworth * * *|||
 [=EB] [_Ec]2- [Ec]2- [Ec]/ z/ | [Ec] [Ge]2 [Ad] [Ac]2 | [EB] [EA]2- [EA] [Ac]2 | z .c2 z .B2 | %7
w: ||||
 [B,F] [B,E]2- [B,E]2- [B,E]/ z/ | [DE] [DE]2 [Ed] [Gc]2 | [EB] [EA]2- [EA] [CE]2 | %10
w: |||
 [CE] [EF]2 [Fe] [=Ad]2 | [Fc] [FB]2- [FB]2- [FB]/ z/ | [=Ac] [Bd]2 [df] [ce]2 | %13
w: |||
 [Bd] [Ac]2 [_Ge] [FA]2 | [=Ed][_Ec][_C=D] [=CE] [EB]2 | [Gc] [EA]2- [EA]2- [EA]/ z/ |] %16
w: |||
V:2
 x6 | x6 | x6 | x6 | x6 | x6 | [_Gc]=G-[GB] [EG]=D-[DA] | x6 | x6 | x6 | x6 | x6 | x6 | x6 | x6 | %15
 x6 |] %16
V:3
 A, A,2 A, A,2 | z A,2- A, z z | A, A,2 A,[K:treble] D2 | D C2- C2- C/ z/ | C B,2 F E2 | %5
 D C2- C E2 | E E2[K:bass] B, F,2 | A, G,2- G,2- G,/ z/ | G, G,2 G, E2 | z C2- C z z | %10
 A, =A,2 A,[K:treble] F2 | z[K:bass] D2- D2- D/ z/ | E F2 D E2 | E E2 C D2 | A, A,2 A, D2 | %15
 E C2- C2- C/ z/ |] %16
V:4
 A,, A,,2 A,, B,,2 | E, A,,2- A,, A,,2 | A,, D,2 D, D,2 | D, A,2- A,2- A,/ z/ | A, E,2 E, E,2 | %5
 E, A,2- A, A,2 | =A, B,2 B,, B,,2 | B,, E,2- E,2- E,/ z/ | E, E,2 E, E,2 | E, A,2- A, A,,2 | %10
 A,, F,2 F, F,2 | F, B,2- B,2- B,/ z/ | F, B,2 D, E,2 | G, A,2 A, D,2 | D, E,2 E, E,2 | %15
 E, A,2- A,2- A,/ z/ |] %16
V:5
 x6 | .G,2 G, F, E,2 | x4[K:treble] x2 | x6 | x6 | x6 | x3[K:bass] x3 | x6 | x6 | .D2 =D, F, E,2 | %10
 x4[K:treble] x2 | .E2[K:bass] F, D, B,,2 | x6 | x6 | x6 | x6 |] %16

